!!!SOCIAL_FUNCTION:	songs connected with legends
!!!PDT:	1929
!!!OTL: No_25_Song_to_Overcome_Fear.krn
!!!REG: Southwest
!!!LANG: Non-Tone
!!!LING_GROUP: Uto-Aztecan
**kern
*staff1
=1-
*clefF4
*k[f#c#g#d#a#]
*M2/4
4G#\
8.d#\L
16c#\Jk
=2
16B\LK
8.B\J
4A#\
=3
4G#\
8G#\L
16E\L
16E\JJ
=4
8.G#\L
16G#\Jk
8A#\L
16G#\L
16G#\JJ
=5
8.G#\L
16E\Jk
8.G#\L
16E\Jk
=6
4D#\
16D#\LK
8.D#\J
=7
=
*M3/4
8G#\L
8E\J
4G#\
8G#\L
8G#\J
=8
8A#\L
8G#\J
4G#\
8G#\L
16E\L
16E\JJ
=9||
*M2/4
8G#\L
8G#\J
8G#\L
8G#\J
=10||
*M3/4
4D#\
8F#\L
8E\J
16D#\LK
8.D#\J
=11
(2D#\
8.D#\L)
16D#\Jk
==:|!
*-
